X:1
T: Lassie I'll Come Near Yow
C:
R:Strathspey
Q: 128
K:Gm
M:4/4
L:1/16
|:D2|G3A B3c A4 F2A2|G4 g3a g4 d3=e|((3f2g2f2) ((3f2=e2d2) ((3c2B2A2) F3D|((3G2A2B2) ABcd A4 G2D2|
G3A B3c A4 F2A2|G4 g3a g4 d3=e|((3f2g2f2) ((3f2=e2d2) ((3c2B2A2) F3D|((3G2A2B2) ABcd A4 G2((3d=e^f)|
g2d2 edcd A4 F2((3d=e^f) |g2G2 g2a2 b4 a3g|f3g f2d2 cBAG F3A|G3A B3c A4 G2((3d=e^f)|
g2d2 edcd A4 F2((3d=e^f) |g2G2 g2a2 b4 a2g2|((3f2g2f2) ((3f2=e2d2) ((3c2B2A2) F3D|G,3A, B,3C A,4 G,2:|
